assets/images/pledge.svg

<svg height="40" viewBox="0 0 40 40" width="40" xmlns="http://www.w3.org/2000/svg"><g fill="#1c6afd" fill-rule="evenodd"><rect fill-opacity=".05" height="40" rx="5" width="40"/><path d="m11.3991828 23.5202281 8.5768491 3.7282855 8.6261415-3.7282855c.5063657-.2195745 1.095632.0134433 1.3152065.5220496.2195745.5063657-.0134434 1.095632-.5220496 1.3152065l-9.0227199 3.8985678c-.1277117.0537734-.2621451.0829006-.3965785.0829006-.1366739 0-.2711073-.0268867-.398819-.0829006l-8.9756681-3.9030489c-.5063657-.2195745-.73938359-.8088408-.5175685-1.3152065.2195745-.5063657.8088408-.7393836 1.3152065-.5175685zm0-4.2279296 8.5768491 3.7282856 8.6261415-3.7282856c.5063657-.2195745 1.095632.0134434 1.3152065.5220496.2195745.5063657-.0134434 1.095632-.5220496 1.3152065l-9.0227199 3.8963273c-.1277117.0560139-.2621451.0829006-.3965785.0829006-.1366739 0-.2711073-.0268867-.398819-.0829006l-8.9756681-3.9008084c-.5063657-.2195745-.73938359-.8088408-.5175685-1.3152065.2195745-.5063657.8088408-.7393835 1.3152065-.5175685zm8.5813303-8.2922985.4212245.1658012 8.8815649 3.8492755c.3831351.1658012.6295962.5466957.6318368.9656798 0 .4212245-.2464612.7998785-.6295963.9679202l-9.289346 4.0150768-.4324274-.1702823-8.8479565-3.8447945c-.3831351-.1658011-.6295963-.5466957-.6295963-.9679202 0-.4212246.2464612-.7998786.6295963-.9656798zm.020165 2.1688584-6.4886508 2.8141386 6.4640046 2.8096575 6.5065753-2.811898z" fill-rule="nonzero" opacity=".5"/></g></svg>

<?xml version="1.0" encoding="UTF-8"?>
<svg width="40px" height="40px" viewBox="0 0 40 40" version="1.1" xmlns="http://www.w3.org/2000/svg" xmlns:xlink="http://www.w3.org/1999/xlink">
    <title>编组 18</title>
    <g id="20220814" stroke="none" stroke-width="1" fill="none" fill-rule="evenodd">
        <g id="切图" transform="translate(-315.000000, -144.000000)" fill="#1C6AFD">
            <g id="编组-18" transform="translate(315.000000, 144.000000)">
                <rect id="矩形" fill-opacity="0.05" x="0" y="0" width="40" height="40" rx="5"></rect>
                <path d="M11.3991828,23.5202281 L19.9760319,27.2485136 L28.6021734,23.5202281 C29.1085391,23.3006536 29.6978054,23.5336714 29.9173799,24.0422777 C30.1369544,24.5486434 29.9039365,25.1379097 29.3953303,25.3574842 L20.3726104,29.256052 C20.2448987,29.3098254 20.1104653,29.3389526 19.9760319,29.3389526 C19.839358,29.3389526 19.7049246,29.3120659 19.5772129,29.256052 L10.6015448,25.3530031 C10.0951791,25.1334286 9.86216121,24.5441623 10.0839763,24.0377966 C10.3035508,23.5314309 10.8928171,23.298413 11.3991828,23.5202281 Z M11.3991828,19.2922985 L19.9760319,23.0205841 L28.6021734,19.2922985 C29.1085391,19.072724 29.6978054,19.3057419 29.9173799,19.8143481 C30.1369544,20.3207138 29.9039365,20.9099801 29.3953303,21.1295546 L20.3726104,25.0258819 C20.2448987,25.0818958 20.1104653,25.1087825 19.9760319,25.1087825 C19.839358,25.1087825 19.7049246,25.0818958 19.5772129,25.0258819 L10.6015448,21.1250735 C10.0951791,20.905499 9.86216121,20.3162327 10.0839763,19.809867 C10.3035508,19.3035013 10.8928171,19.0704835 11.3991828,19.2922985 Z M19.9805131,11 L20.4017376,11.1658012 L29.2833025,15.0150767 C29.6664376,15.1808779 29.9128987,15.5617724 29.9151393,15.9807565 C29.9151393,16.401981 29.6686781,16.780635 29.285543,16.9486767 L19.996197,20.9637535 L19.5637696,20.7934712 L10.7158131,16.9486767 C10.332678,16.7828756 10.0862168,16.401981 10.0862168,15.9807565 C10.0862168,15.5595319 10.332678,15.1808779 10.7158131,15.0150767 L19.9805131,11 Z M20.0006781,13.1688584 L13.5120273,15.982997 L19.9760319,18.7926545 L26.4826072,15.9807565 L20.0006781,13.1688584 Z" id="形状结合" fill-rule="nonzero" opacity="0.5"></path>
            </g>
        </g>
    </g>
</svg>
